X:1170
T:March of the 22nd. Regt.
M:C|
L:1/8
Q:1/2=66
I: :: ::
Z:Jack Campin * www.campin.me.uk * 2009
K:D
      A2 |   d>cd>e {f}f2 e>d      |{d}e2 A>A A2 d>c|{c}B>A {A}G>F E>B A>G      |F2       D>D D2
      A2 |   d>cd>e    f2 e>d      |   e2^g>b a2 d2 |   c>a    f>d c2 TB3/A//B//|A2       A>A A2
"_Pia"f2 |{f}e2 dc     c2TB3/A//B//|   B4     A2   :|
      A2 |   d>fa>g    f>ed>=c     |   B=cdB  G2 B2 |   e>g````b>a g>f`e>d      |c/d/c/d/ e>c A2
      f>g|   a>fd>A    g>ec>A      |   f>dA>f e>cA>G|   F>A    d>e f2 Te3/d//e//|d2       d>d d2
"_Pia"B2 |{B}A2 G>F    F2 E2       |   E4     D2   :|
<end>
<start>
